X: 27593
T: Monvara Bridge
R: polka
M: 2/4
K: Gmajor
|:D|GB B>A|GB B2|AB cd|ed B>A|
GB B>A|GB B2|AB cA|GF G:|
|:B|dg g>e|dB B2|AB cd|ed B>c|
dg g>e|dB B2|AB cA|GF G:|
|:B|dg ga|bg g2|e/f/g ed|dB B>c|
dg ga|bg g2|e/f/g ed|g2 g:|

